public/assets/images/logo-discord4.svg

<svg width="24" height="24" viewBox="0 0 24 24" fill="none" xmlns="http://www.w3.org/2000/svg">
<path fill-rule="evenodd" clip-rule="evenodd" d="M12 24C18.6274 24 24 18.6274 24 12C24 5.37258 18.6274 0 12 0C5.37258 0 0 5.37258 0 12C0 18.6274 5.37258 24 12 24ZM13.472 13.488C13.928 13.488 14.288 13.088 14.288 12.6C14.288 12.112 13.928 11.712 13.472 11.712C13.016 11.712 12.656 12.112 12.656 12.6C12.656 13.088 13.024 13.488 13.472 13.488ZM9.736 12.6C9.736 12.112 10.096 11.712 10.552 11.712C11.008 11.712 11.376 12.112 11.368 12.6C11.368 13.088 11.008 13.488 10.552 13.488C10.104 13.488 9.736 13.088 9.736 12.6ZM19 21V6.648C19 5.736 18.264 5 17.36 5H6.64C5.736 5 5 5.736 5 6.648V17.464C5 18.376 5.736 19.112 6.64 19.112H15.712L15.288 17.632C16.5363 18.7925 16.9357 19.1666 17.3422 19.533C17.698 19.8538 18.0592 20.1686 19 21ZM15.568 9.568C15.568 9.568 16.72 11.656 16.72 14.232C16.72 14.232 16.04 15.392 14.272 15.448C14.272 15.448 13.984 15.104 13.744 14.8C14.792 14.504 15.192 13.848 15.192 13.848C14.864 14.064 14.552 14.216 14.272 14.32C12.5484 15.0439 10.6303 14.7962 9.28 14.04C9.27607 14.0374 9.26173 14.0291 9.24058 14.017C9.17431 13.9789 9.04121 13.9024 8.952 13.84C8.952 13.84 9.336 14.48 10.352 14.784C10.112 15.088 9.816 15.448 9.816 15.448C8.048 15.392 7.376 14.232 7.376 14.232C7.376 11.656 8.528 9.568 8.528 9.568C9.68 8.704 10.776 8.728 10.776 8.728L10.856 8.824C9.416 9.24 8.752 9.872 8.752 9.872C8.752 9.872 8.928 9.776 9.224 9.64C11.0674 8.83028 13.2997 8.83047 15.2 9.872C15.2 9.872 14.568 9.272 13.208 8.856L13.32 8.728C13.32 8.728 14.416 8.704 15.568 9.568Z" fill="#C4CAE8"/>
</svg>

<svg xmlns="http://www.w3.org/2000/svg" width="24" height="24" fill="none"><path fill="#C4CAE8" fill-rule="evenodd" d="M12 24c6.627 0 12-5.373 12-12S18.627 0 12 0 0 5.373 0 12s5.373 12 12 12Zm1.472-10.512c.456 0 .816-.4.816-.888s-.36-.888-.816-.888c-.456 0-.816.4-.816.888s.368.888.816.888ZM9.736 12.6c0-.488.36-.888.816-.888.456 0 .824.4.816.888 0 .488-.36.888-.816.888-.448 0-.816-.4-.816-.888ZM19 21V6.648C19 5.736 18.264 5 17.36 5H6.64C5.736 5 5 5.736 5 6.648v10.816c0 .912.736 1.648 1.64 1.648h9.072l-.424-1.48c1.248 1.16 1.648 1.535 2.054 1.901.356.32.717.636 1.658 1.467ZM15.568 9.568s1.152 2.088 1.152 4.664c0 0-.68 1.16-2.448 1.216 0 0-.288-.344-.528-.648 1.048-.296 1.448-.952 1.448-.952-.328.216-.64.368-.92.472-1.724.724-3.642.476-4.992-.28a1.316 1.316 0 0 0-.04-.023c-.066-.038-.199-.115-.288-.177 0 0 .384.64 1.4.944-.24.304-.536.664-.536.664-1.768-.056-2.44-1.216-2.44-1.216 0-2.576 1.152-4.664 1.152-4.664 1.152-.864 2.248-.84 2.248-.84l.08.096c-1.44.416-2.104 1.048-2.104 1.048s.176-.096.472-.232c1.843-.81 4.076-.81 5.976.232 0 0-.632-.6-1.992-1.016l.112-.128s1.096-.024 2.248.84Z" clip-rule="evenodd"/></svg>
